src/images/cofee-icon.svg

<svg width="35" height="36" viewBox="0 0 35 36" xmlns="http://www.w3.org/2000/svg"><title>cofee-icon</title><g fill="#F2F2F2" fill-rule="evenodd"><path d="M11.3 15.6c1.75-.85 2.9-2.15 3.45-3.75.65-1.9.35-4.25-.85-6.6C11.65.75 7.85-.8 4 1.1 2.3 1.95 1.1 3.25.55 4.85c-.65 1.9-.35 4.25.85 6.6 1.6 3.2 4.05 4.95 6.7 4.95 1.05 0 2.15-.25 3.2-.8zm-8.55-4.85c-1-2-1.25-3.9-.75-5.45.4-1.25 1.3-2.2 2.7-2.9.95-.45 1.8-.65 2.55-.65 2.9 0 4.65 2.75 5.35 4.15 1 2 1.25 3.95.75 5.45-.4 1.25-1.3 2.2-2.7 2.9-4.55 2.25-7.2-2.1-7.9-3.5z"/><path d="M9.3 13.3c.15.1.3.2.5.2s.4-.1.55-.25c.25-.3.25-.8-.1-1.05 0 0-1.65-1.45-1.75-3.75-.15-3-2.55-4.9-2.65-4.95-.35-.25-.8-.2-1.05.15s-.2.8.15 1.05c0 0 1.95 1.55 2.05 3.85.15 2.85 2.2 4.65 2.3 4.75zM34.3 10.55c-1.4-4-5.35-5.55-10-3.9-2.5.85-4.35 2.35-5.25 4.15-.75 1.55-.8 3.25-.15 5.1 1.05 2.95 3.35 4.55 6.4 4.55 1.1 0 2.35-.2 3.6-.65 2.55-.9 4.35-2.35 5.25-4.15.75-1.55.8-3.25.15-5.1zM32.8 15c-.7 1.45-2.25 2.65-4.4 3.4-1.45.5-6.4 1.8-8.1-3-.5-1.45-.5-2.8.1-3.95.7-1.45 2.25-2.65 4.4-3.4.6-.2 1.8-.55 3.1-.55 1.9 0 4 .7 5 3.55.5 1.45.45 2.8-.1 3.95z"/><path d="M30.65 11s-1.8 1.75-4.1 1.55c-2.95-.25-5 1.6-5.1 1.65-.3.3-.35.75-.05 1.05.15.15.35.25.55.25.2 0 .35-.05.5-.2 0 0 1.65-1.45 3.95-1.25 3 .25 5.2-1.9 5.3-2 .3-.3.3-.75 0-1.05-.3-.3-.75-.3-1.05 0zM13.9 19.75c-4.15-1-7.55 1.45-8.75 6.25-.6 2.55-.4 4.9.65 6.65.9 1.45 2.3 2.45 4.25 2.9.65.15 1.25.25 1.85.25 3.3 0 5.85-2.35 6.9-6.5.65-2.6.4-4.9-.65-6.65-.9-1.5-2.35-2.45-4.25-2.9zm3.4 9.15c-.35 1.5-1.95 6.35-6.9 5.15-1.5-.35-2.6-1.1-3.3-2.25-.85-1.4-1-3.35-.5-5.5.35-1.3 1.65-5.3 5.45-5.3.45 0 .95.05 1.5.2 1.5.35 2.65 1.1 3.3 2.25.8 1.35 1 3.3.45 5.45z"/><path d="M12.85 22.15c-.4.1-.65.5-.6.9 0 0 .5 2.45-.9 4.25-1.8 2.35-1.35 5.05-1.35 5.15.05.35.4.6.75.6h.1c.4-.05.7-.45.6-.85 0 0-.35-2.2 1.1-4 1.85-2.35 1.2-5.35 1.2-5.5-.1-.4-.5-.65-.9-.55z"/></g></svg>

<?xml version="1.0" encoding="UTF-8"?>
<svg width="35px" height="36px" viewBox="0 0 35 36" version="1.1" xmlns="http://www.w3.org/2000/svg" xmlns:xlink="http://www.w3.org/1999/xlink">
    <!-- Generator: Sketch 41.2 (35397) - http://www.bohemiancoding.com/sketch -->
    <title>Group</title>
    <desc>Created with Sketch.</desc>
    <defs></defs>
    <g id="Page-1" stroke="none" stroke-width="1" fill="none" fill-rule="evenodd">
        <g id="Landing" transform="translate(-38.000000, -129.000000)" fill="#FFFFFF">
            <g id="noun_514911_cc" transform="translate(38.000000, 129.000000)">
                <g id="Group">
                    <g id="Shape">
                        <path d="M11.3,15.6 C13.05,14.75 14.2,13.45 14.75,11.85 C15.4,9.95 15.1,7.6 13.9,5.25 C11.65,0.75 7.85,-0.8 4,1.1 C2.3,1.95 1.1,3.25 0.55,4.85 C-0.1,6.75 0.2,9.1 1.4,11.45 C3,14.65 5.45,16.4 8.1,16.4 C9.15,16.4 10.25,16.15 11.3,15.6 L11.3,15.6 Z M2.75,10.75 C1.75,8.75 1.5,6.85 2,5.3 C2.4,4.05 3.3,3.1 4.7,2.4 C5.65,1.95 6.5,1.75 7.25,1.75 C10.15,1.75 11.9,4.5 12.6,5.9 C13.6,7.9 13.85,9.85 13.35,11.35 C12.95,12.6 12.05,13.55 10.65,14.25 C6.1,16.5 3.45,12.15 2.75,10.75 L2.75,10.75 Z"></path>
                        <path d="M9.3,13.3 C9.45,13.4 9.6,13.5 9.8,13.5 C10,13.5 10.2,13.4 10.35,13.25 C10.6,12.95 10.6,12.45 10.25,12.2 C10.25,12.2 8.6,10.75 8.5,8.45 C8.35,5.45 5.95,3.55 5.85,3.5 C5.5,3.25 5.05,3.3 4.8,3.65 C4.55,4 4.6,4.45 4.95,4.7 C4.95,4.7 6.9,6.25 7,8.55 C7.15,11.4 9.2,13.2 9.3,13.3 L9.3,13.3 Z"></path>
                        <path d="M34.3,10.55 C32.9,6.55 28.95,5 24.3,6.65 C21.8,7.5 19.95,9 19.05,10.8 C18.3,12.35 18.25,14.05 18.9,15.9 C19.95,18.85 22.25,20.45 25.3,20.45 C26.4,20.45 27.65,20.25 28.9,19.8 C31.45,18.9 33.25,17.45 34.15,15.65 C34.9,14.1 34.95,12.4 34.3,10.55 L34.3,10.55 Z M32.8,15 C32.1,16.45 30.55,17.65 28.4,18.4 C26.95,18.9 22,20.2 20.3,15.4 C19.8,13.95 19.8,12.6 20.4,11.45 C21.1,10 22.65,8.8 24.8,8.05 C25.4,7.85 26.6,7.5 27.9,7.5 C29.8,7.5 31.9,8.2 32.9,11.05 C33.4,12.5 33.35,13.85 32.8,15 L32.8,15 Z"></path>
                        <path d="M30.65,11 C30.65,11 28.85,12.75 26.55,12.55 C23.6,12.3 21.55,14.15 21.45,14.2 C21.15,14.5 21.1,14.95 21.4,15.25 C21.55,15.4 21.75,15.5 21.95,15.5 C22.15,15.5 22.3,15.45 22.45,15.3 C22.45,15.3 24.1,13.85 26.4,14.05 C29.4,14.3 31.6,12.15 31.7,12.05 C32,11.75 32,11.3 31.7,11 C31.4,10.7 30.95,10.7 30.65,11 L30.65,11 Z"></path>
                        <path d="M13.9,19.75 C9.75,18.75 6.35,21.2 5.15,26 C4.55,28.55 4.75,30.9 5.8,32.65 C6.7,34.1 8.1,35.1 10.05,35.55 C10.7,35.7 11.3,35.8 11.9,35.8 C15.2,35.8 17.75,33.45 18.8,29.3 C19.45,26.7 19.2,24.4 18.15,22.65 C17.25,21.15 15.8,20.2 13.9,19.75 L13.9,19.75 Z M17.3,28.9 C16.95,30.4 15.35,35.25 10.4,34.05 C8.9,33.7 7.8,32.95 7.1,31.8 C6.25,30.4 6.1,28.45 6.6,26.3 C6.95,25 8.25,21 12.05,21 C12.5,21 13,21.05 13.55,21.2 C15.05,21.55 16.2,22.3 16.85,23.45 C17.65,24.8 17.85,26.75 17.3,28.9 L17.3,28.9 Z"></path>
                        <path d="M12.85,22.15 C12.45,22.25 12.2,22.65 12.25,23.05 C12.25,23.05 12.75,25.5 11.35,27.3 C9.55,29.65 10,32.35 10,32.45 C10.05,32.8 10.4,33.05 10.75,33.05 L10.85,33.05 C11.25,33 11.55,32.6 11.45,32.2 C11.45,32.2 11.1,30 12.55,28.2 C14.4,25.85 13.75,22.85 13.75,22.7 C13.65,22.3 13.25,22.05 12.85,22.15 L12.85,22.15 Z"></path>
                    </g>
                </g>
            </g>
        </g>
    </g>
</svg>
